X:1
T:Title
%%score { ( 1 3 ) | 2 }
L:1/8
M:4/4
K:A
V:1 treble nm="Grand Piano"
V:3 treble 
V:2 bass 
V:1
 z4 z2[Q:1/4=108] [A,CE]2 | [CEA]2 [Ec]2 [CEA]2 E2 | F2 A2 E2 E2 | A2 A2 AA [Ac]2 |[M:3/4] [Ge]6 | %5
[M:1/4] [Ed]2 |[M:4/4] [Ec]2 [Ae]2 [Ec]2 [EA]2 | F2 A2 E2 [Fd]2 | c2 c2 BB B2 |[M:3/4] [CA]6 | %10
[M:1/4] E2 |[M:4/4] A2 c2 AA E2 | F6 z2 | [A,CE]2 [CEA]2 [Ec][Ec] [CA]2 | %14
[M:3/4] B-[GB-] [GB-]2 [GB]2 |[M:1/4] d2 |[M:4/4] [Ec]2 [Ae]2 [Ec]2 [EA]2 | F2 A2 E2 [Fd]2 | %18
 c2 c2 BB B2 |[M:3/4] [CA]6 |] %20
V:2
 z4 z2 A,,2 | A,,2 A,,2 A,,2 [C,A,]2 | [D,A,D]2 [F,A,D]2 [A,C]2 [A,C]2 | %3
 [A,CE]2 [A,CE]2 [A,CE][A,CE] [F,A,]2 |[M:3/4] [E,B,]6 |[M:1/4] [E,G,]2 | %6
[M:4/4] [A,,A,]2 [A,,C]2 [A,,A,]2 [C,A,]2 | [D,A,D]2 [F,A,D]2 [A,C]2 [D,A,]2 | %8
 [E,A,E]2 [E,A,E]2 [E,G,D][E,G,D] [E,G,D]2 |[M:3/4] [A,,A,]6 |[M:1/4] [A,C]2 | %11
[M:4/4] [A,CE]2 [A,E]2 [A,CE][A,CE] [C,A,]2 | [D,A,D][D,A,] [D,A,]2 [D,A,]2 [D,A,D]2 | %13
 A,,2 A,,2 A,A, F,2 |[M:3/4] [E,E][E,E] [E,E]2 [E,E]2 |[M:1/4] [E,G,E]2 | %16
[M:4/4] [A,,A,]2 [A,,C]2 [A,,A,]2 [C,A,]2 | [D,A,D]2 [F,A,D]2 [A,C]2 [D,A,]2 | %18
 [E,A,E]2 [E,A,E]2 [E,G,D][E,G,D] [E,G,D]2 |[M:3/4] [A,,A,]6 |] %20
V:3
 x8 | x8 | x8 | x8 |[M:3/4] x6 |[M:1/4] x2 |[M:4/4] x8 | x8 | x8 |[M:3/4] x6 |[M:1/4] x2 | %11
[M:4/4] x8 | z D D2 D2 F2 | x8 |[M:3/4] .G2 z2 z2 |[M:1/4] x2 |[M:4/4] x8 | x8 | x8 |[M:3/4] x6 |] %20

